X:1
T:The Lowlands of Holland
M:3/4
L:1/8
K:G
 GG| G/2G/2 F D2 Bd| c3/2- B/2 G2 AG| F3/2- D/2 C2(2D3.99999962500005/5.99999925000009D3.99999962500005/5.99999925000009E3.99999962500005/5.99999925000009 F3.99999962500005/5.99999925000009|\
 G2 z2 G2| G3/2 F/2 D2 Bd| c3/2 B/2 G2 AG| F3/2- D/2 C2(2D3.99999962500005/5.99999925000009D3.99999962500005/5.99999925000009E3.99999962500005/5.99999925000009 F3.99999962500005/5.99999925000009|\
 G4 B/2B/2 c| d3/2 e/2d-cB-A| GF D2 Bc| d3/2 e/2d-cB-G| A2-A-c BA|\
 G3/2- F/2 D2 c2| B3/2- A/2 G2 AG| F3/2- D/2 C2(2D3.99999962500005/5.99999925000009D3.99999962500005/5.99999925000009E3.99999962500005/5.99999925000009 F3.99999962500005/5.99999925000009|\
 G4||
